X:248
T: NICHT BLOS FUER DIESE UNTERWELT
N: B0296
O: Europa, Mitteleuropa, Deutschland
R: Stimmungs - Lied, Freude, Freundschaft
M: 4/4
L: 1/8
K: G
d2 | B3cd2d2 | A3Gc2
c2 | B2d2edcB | B4A2z
D | c2c2B2B2 | efged3
c | B2cAG2F2 | G4z2

